!!!SOCIAL_FUNCTION:	songs used in the treatment of the sick
!!!PDT:	1929
!!!OTL: No_67_The_Meeting_with_Elder_Brother.krn
!!!REG: Southwest
!!!LANG: Non-Tone
!!!LING_GROUP: Uto-Aztecan
**kern
*staff1
=1-
*clefF4
*k[f#]
*M2/4
8.d\L
16d\Jk
8.d\L
16B\Jk
=2
8.A\L
16A\Jk
4A\
=3!|:
4..c\
16G\
=4
8.G\L
16G\Jk
8.G\L
16G\Jk
=5
(12G\L
12F#\)
12E\J
4E\
=6
4.G\
8F#\
=7
4G\
4F#\
=8
(8F#\L
8E\J)
4E\
=9
4G\
(12G\L
12F#\)
12E\J
=10
4E\
(12F#\L
12E\)
12E\J
=11
4E\
(8.C/L
16E/Jk)
=12
8.E\L
16E\Jk
8.E/L
16C/Jk
=13
4..C/
16E\
=14
4E\
16BB/LK
8BB/
16E/Jk
=15
16E\LK
8.E\J
8.E\L
16D\Jk
=16
2E\
==:|!
*-
